X:93
T:Lass and the Money’s all my Own,The. RH.093
R:Jig
S:Rev.R.Harrison’s MS,c1815,Cumbria
O:England
A:Temple Sowerby,Cumbria
Z:vmp.Simon Wilson. Review PJH, 2008.
M:6/8
L:1/8
Q:3/8=120
K:A
f|ecA ABc|d2c B2A|ecA ecA|B2c d2f|!
ecA ABc|d2c B2A|c/d/ec dBe|cAA A2:|!
|:e|fdf ece|fdf ece|fga edc|B2c d2f|!
efg agf|edc B2A|c/d/ec dBe|cAA A2:|

